Sweet-Rainbow/icons/intellij.svg

<?xml version="1.0" encoding="UTF-8" standalone="no"?>
<!-- Generator: Gravit.io -->

<svg
   xmlns:dc="http://purl.org/dc/elements/1.1/"
   xmlns:cc="http://creativecommons.org/ns#"
   xmlns:rdf="http://www.w3.org/1999/02/22-rdf-syntax-ns#"
   xmlns:svg="http://www.w3.org/2000/svg"
   xmlns="http://www.w3.org/2000/svg"
   xmlns:sodipodi="http://sodipodi.sourceforge.net/DTD/sodipodi-0.dtd"
   xmlns:inkscape="http://www.inkscape.org/namespaces/inkscape"
   style="isolation:isolate"
   viewBox="0 0 36 36"
   width="48"
   height="48"
   version="1.1"
   id="svg51"
   sodipodi:docname="intellij.svg"
   inkscape:version="0.92.4 (5da689c313, 2019-01-14)">
  <metadata
     id="metadata57">
    <rdf:RDF>
      <cc:Work
         rdf:about="">
        <dc:format>image/svg+xml</dc:format>
        <dc:type
           rdf:resource="http://purl.org/dc/dcmitype/StillImage" />
        <dc:title></dc:title>
      </cc:Work>
    </rdf:RDF>
  </metadata>
  <defs
     id="defs55" />
  <sodipodi:namedview
     pagecolor="#ffffff"
     bordercolor="#666666"
     borderopacity="1"
     objecttolerance="10"
     gridtolerance="10"
     guidetolerance="10"
     inkscape:pageopacity="0"
     inkscape:pageshadow="2"
     inkscape:window-width="640"
     inkscape:window-height="480"
     id="namedview53"
     showgrid="false"
     inkscape:zoom="29.365243"
     inkscape:cx="25.325443"
     inkscape:cy="32"
     inkscape:current-layer="svg51"
     units="px" />
  <linearGradient
     id="_lgradient_72"
     x1="0.50999999"
     y1="-0.017441861"
     x2="0.30137169"
     y2="1.0771763"
     gradientTransform="matrix(29.74,0,0,47.99,18.26,0.17)"
     gradientUnits="userSpaceOnUse">
    <stop
       offset="0%"
       stop-opacity="1"
       style="stop-color:rgb(22,181,228)"
       id="stop2" />
    <stop
       offset="98.26086956521739%"
       stop-opacity="1"
       style="stop-color:rgb(245,32,250)"
       id="stop4" />
  </linearGradient>
  <linearGradient
     id="_lgradient_73"
     x1="0.67180997"
     y1="0.020570019"
     x2="0.071039237"
     y2="0.77083331"
     gradientTransform="matrix(27.86,0,0,17.62,2.14,30.57)"
     gradientUnits="userSpaceOnUse">
    <stop
       offset="0%"
       stop-opacity="1"
       style="stop-color:rgb(26,108,255)"
       id="stop9" />
    <stop
       offset="100%"
       stop-opacity="1"
       style="stop-color:rgb(197,34,255)"
       id="stop11" />
  </linearGradient>
  <linearGradient
     id="_lgradient_74"
     x1="0.25"
     y1="0.29211381"
     x2="1.1365639"
     y2="1.143838"
     gradientTransform="matrix(11.44,0,0,15.94,0.56,20.88)"
     gradientUnits="userSpaceOnUse">
    <stop
       offset="0%"
       stop-opacity="1"
       style="stop-color:rgb(255,224,49)"
       id="stop16" />
    <stop
       offset="98.69565217391305%"
       stop-opacity="1"
       style="stop-color:rgb(252,82,82)"
       id="stop18" />
  </linearGradient>
  <linearGradient
     id="_lgradient_75"
     x1="0.066964284"
     y1="-0.35655352"
     x2="0.94513625"
     y2="0.87466288"
     gradientTransform="matrix(35.71,0,0,23.11,-0.71,0.89)"
     gradientUnits="userSpaceOnUse">
    <stop
       offset="0%"
       stop-opacity="1"
       style="stop-color:rgb(249,212,35)"
       id="stop23" />
    <stop
       offset="51.56237565086822%"
       stop-opacity="1"
       style="stop-color:rgb(255,78,80)"
       id="stop25" />
    <stop
       offset="99.1304347826087%"
       stop-opacity="1"
       style="stop-color:rgb(138,35,135)"
       id="stop27" />
  </linearGradient>
  <linearGradient
     id="_lgradient_76"
     x1="0"
     y1="0.5"
     x2="1"
     y2="0.5"
     gradientTransform="matrix(29,0,0,-29,9.5,38.5)"
     gradientUnits="userSpaceOnUse">
    <stop
       offset="0%"
       stop-opacity="1"
       style="stop-color:rgb(88,0,226)"
       id="stop32" />
    <stop
       offset="100%"
       stop-opacity="1"
       style="stop-color:rgb(255,0,230)"
       id="stop34" />
  </linearGradient>
  <linearGradient
     id="_lgradient_77"
     x1="-0.29796708"
     y1="0.49682918"
     x2="1.4412044"
     y2="0.48506212"
     gradientTransform="matrix(15.884,0,0,10.623,14.858,14.722)"
     gradientUnits="userSpaceOnUse">
    <stop
       offset="0%"
       stop-opacity="1"
       style="stop-color:rgb(88,0,226)"
       id="stop39" />
    <stop
       offset="100%"
       stop-opacity="1"
       style="stop-color:rgb(255,0,230)"
       id="stop41" />
  </linearGradient>
  <linearGradient
     id="_lgradient_78"
     x1="8.4387722"
     y1="24.430014"
     x2="31.810658"
     y2="24.112312"
     gradientTransform="scale(1.2136655,0.82395027)"
     gradientUnits="userSpaceOnUse">
    <stop
       offset="0%"
       stop-opacity="1"
       style="stop-color:rgb(88,0,226)"
       id="stop44" />
    <stop
       offset="100%"
       stop-opacity="1"
       style="stop-color:rgb(255,0,230)"
       id="stop46" />
  </linearGradient>
  <g
     id="g870"
     transform="matrix(0.73906795,0,0,0.73906795,0.52473832,0.12933697)">
    <path
       id="path7"
       d="M 31.47,8.36 30.11,9.83 27.17,7.11 28.53,5.64 33.61,0.17 48,13.62 v 29.2 l -19.49,5.34 -8.54,-5.15 -1.71,-1.03 2.06,-3.43 1.71,1.03 7.08,4.26 L 44,39.77 V 15.36 L 33.81,5.83 Z"
       style="fill:url(#_lgradient_72)"
       inkscape:connector-curvature="0" />
    <path
       id="path14"
       d="M 21.9,36.62 22.99,36 30,38 23.29,40.38 2.14,48.19 6.06,32.51 l 0.48,-1.94 3.89,0.97 -0.49,1.95 -2.08,8.32 z"
       style="fill:url(#_lgradient_73)"
       inkscape:connector-curvature="0" />
    <path
       id="path21"
       d="M 11.3,32.48 12,33 10.22,36.82 8.7,35.52 0.56,28.55 3.17,22.71 3.99,20.88 7.64,22.51 6.83,24.34 5.44,27.45 Z"
       style="fill:url(#_lgradient_74)"
       inkscape:connector-curvature="0" />
    <path
       id="path30"
       d="M 8.58,19.32 10.49,19.9 10.27,24 7.42,23.14 -0.71,20.68 7.73,0.89 21.64,2.05 31.04,7.79 35,10 30.385,12.022 28.96,11.21 20.36,5.95 10.27,5.11 4.71,18.14 Z"
       style="fill:url(#_lgradient_75)"
       inkscape:connector-curvature="0" />
    <path
       id="path37"
       d="m 35.978,16.782 v 0 c 0,0.695 0.565,1.26 1.261,1.26 v 0 c 0.696,0 1.261,-0.565 1.261,-1.26 v 0 -4.13 C 38.5,10.912 37.088,9.5 35.348,9.5 H 12.652 C 10.912,9.5 9.5,10.912 9.5,12.652 v 11.978 0 c 0,0.696 0.565,1.261 1.261,1.261 v 0 c 0.696,0 1.261,-0.565 1.261,-1.261 v 0 -10.717 c 0,-1.044 0.847,-1.891 1.891,-1.891 h 20.174 c 1.044,0 1.891,0.847 1.891,1.891 z M 12.022,31.218 v 0 c 0,-0.695 -0.565,-1.26 -1.261,-1.26 v 0 c -0.696,0 -1.261,0.565 -1.261,1.26 v 0 4.13 c 0,1.74 1.412,3.152 3.152,3.152 h 22.696 c 1.74,0 3.152,-1.412 3.152,-3.152 v -12.495 0 c 0,-0.696 -0.565,-1.261 -1.261,-1.261 v 0 c -0.696,0 -1.261,0.565 -1.261,1.261 v 0 11.234 c 0,1.044 -0.847,1.891 -1.891,1.891 H 13.913 c -1.044,0 -1.891,-0.847 -1.891,-1.891 z M 14,33.5 h 9 V 31 h -9 z"
       style="fill:url(#_lgradient_76);fill-rule:evenodd"
       inkscape:connector-curvature="0" />
    <path
       id="path49"
       stroke-miterlimit="3"
       d="m 21.862,14.722 v 1.567 H 19.363 V 23.6 h 2.499 v 1.566 H 14.858 V 23.6 h 2.482 v -7.311 h -2.482 v -1.567 z m 4.919,10.623 v 0 0 q -1.292,0 -2.278,-0.567 v 0 0 Q 23.517,24.211 22.99,23.182 v 0 l 1.734,-0.731 v 0 q 0.714,1.208 2.074,1.208 v 0 0 q 1.938,0 1.938,-2.133 v 0 -6.804 h 2.006 v 6.893 0 q 0,1.059 -0.357,1.82 v 0 0 q -0.357,0.761 -0.969,1.157 v 0 0 q -0.612,0.395 -1.258,0.574 v 0 0 q -0.646,0.179 -1.377,0.179 z"
       style="vector-effect:non-scaling-stroke;fill:url(#_lgradient_77);stroke:url(#_lgradient_78);stroke-width:0.5;stroke-linecap:square;stroke-linejoin:miter;stroke-miterlimit:3"
       inkscape:connector-curvature="0" />
  </g>
</svg>

<?xml version="1.0" encoding="UTF-8" standalone="no"?><!-- Generator: Gravit.io --><svg xmlns="http://www.w3.org/2000/svg" xmlns:xlink="http://www.w3.org/1999/xlink" style="isolation:isolate" viewBox="0 0 48 48" width="48pt" height="48pt"><linearGradient id="_lgradient_72" x1="0.5100000000000006" y1="-0.017441860465116255" x2="0.30137168141592974" y2="1.0771763737394529" gradientTransform="matrix(29.74,0,0,47.99,18.26,0.17)" gradientUnits="userSpaceOnUse"><stop offset="0%" stop-opacity="1" style="stop-color:rgb(22,181,228)"/><stop offset="98.26086956521739%" stop-opacity="1" style="stop-color:rgb(245,32,250)"/></linearGradient><path d=" M 31.47 8.36 L 30.11 9.83 L 27.17 7.11 L 28.53 5.64 L 33.61 0.17 L 48 13.62 L 48 42.82 L 28.51 48.16 L 19.97 43.01 L 18.26 41.98 L 20.32 38.55 L 22.03 39.58 L 29.11 43.84 L 44 39.77 L 44 15.36 L 33.81 5.83 L 31.47 8.36 Z " fill="url(#_lgradient_72)"/><linearGradient id="_lgradient_73" x1="0.6718099850460906" y1="0.020570018975650584" x2="0.07103923938064405" y2="0.7708333333333337" gradientTransform="matrix(27.86,0,0,17.62,2.14,30.57)" gradientUnits="userSpaceOnUse"><stop offset="0%" stop-opacity="1" style="stop-color:rgb(26,108,255)"/><stop offset="100%" stop-opacity="1" style="stop-color:rgb(197,34,255)"/></linearGradient><path d=" M 21.9 36.62 L 22.99 36 L 30 38 L 23.29 40.38 L 2.14 48.19 L 6.06 32.51 L 6.54 30.57 L 10.43 31.54 L 9.94 33.49 L 7.86 41.81 L 21.9 36.62 Z " fill="url(#_lgradient_73)"/><linearGradient id="_lgradient_74" x1="0.24999999999999994" y1="0.29211381255776253" x2="1.1365638766519823" y2="1.1438381074703665" gradientTransform="matrix(11.44,0,0,15.94,0.56,20.88)" gradientUnits="userSpaceOnUse"><stop offset="0%" stop-opacity="1" style="stop-color:rgb(255,224,49)"/><stop offset="98.69565217391305%" stop-opacity="1" style="stop-color:rgb(252,82,82)"/></linearGradient><path d=" M 11.3 32.48 L 12 33 L 10.22 36.82 L 8.7 35.52 L 0.56 28.55 L 3.17 22.71 L 3.99 20.88 L 7.64 22.51 L 6.83 24.34 L 5.44 27.45 L 11.3 32.48 Z " fill="url(#_lgradient_74)"/><linearGradient id="_lgradient_75" x1="0.06696428571428571" y1="-0.35655353374249915" x2="0.9451362781954887" y2="0.8746628690424132" gradientTransform="matrix(35.71,0,0,23.11,-0.71,0.89)" gradientUnits="userSpaceOnUse"><stop offset="0%" stop-opacity="1" style="stop-color:rgb(249,212,35)"/><stop offset="51.56237565086822%" stop-opacity="1" style="stop-color:rgb(255,78,80)"/><stop offset="99.1304347826087%" stop-opacity="1" style="stop-color:rgb(138,35,135)"/></linearGradient><path d=" M 8.58 19.32 L 10.49 19.9 L 10.27 24 L 7.42 23.14 L -0.71 20.68 L 7.73 0.89 L 21.64 2.05 L 31.04 7.79 L 35 10 L 30.385 12.022 L 28.96 11.21 L 20.36 5.95 L 10.27 5.11 L 4.71 18.14 L 8.58 19.32 Z " fill="url(#_lgradient_75)"/><linearGradient id="_lgradient_76" x1="0" y1="0.5" x2="1" y2="0.5" gradientTransform="matrix(29,0,0,-29,9.5,38.5)" gradientUnits="userSpaceOnUse"><stop offset="0%" stop-opacity="1" style="stop-color:rgb(88,0,226)"/><stop offset="100%" stop-opacity="1" style="stop-color:rgb(255,0,230)"/></linearGradient><path d=" M 35.978 16.782 L 35.978 16.782 C 35.978 17.477 36.543 18.042 37.239 18.042 L 37.239 18.042 C 37.935 18.042 38.5 17.477 38.5 16.782 L 38.5 16.782 L 38.5 12.652 C 38.5 10.912 37.088 9.5 35.348 9.5 L 12.652 9.5 C 10.912 9.5 9.5 10.912 9.5 12.652 L 9.5 24.63 L 9.5 24.63 C 9.5 25.326 10.065 25.891 10.761 25.891 L 10.761 25.891 C 11.457 25.891 12.022 25.326 12.022 24.63 L 12.022 24.63 L 12.022 13.913 C 12.022 12.869 12.869 12.022 13.913 12.022 L 34.087 12.022 C 35.131 12.022 35.978 12.869 35.978 13.913 L 35.978 16.782 L 35.978 16.782 Z  M 12.022 31.218 L 12.022 31.218 C 12.022 30.523 11.457 29.958 10.761 29.958 L 10.761 29.958 C 10.065 29.958 9.5 30.523 9.5 31.218 L 9.5 31.218 L 9.5 35.348 C 9.5 37.088 10.912 38.5 12.652 38.5 L 35.348 38.5 C 37.088 38.5 38.5 37.088 38.5 35.348 L 38.5 22.853 L 38.5 22.853 C 38.5 22.157 37.935 21.592 37.239 21.592 L 37.239 21.592 C 36.543 21.592 35.978 22.157 35.978 22.853 L 35.978 22.853 L 35.978 34.087 C 35.978 35.131 35.131 35.978 34.087 35.978 L 13.913 35.978 C 12.869 35.978 12.022 35.131 12.022 34.087 L 12.022 31.218 L 12.022 31.218 Z  M 14 33.5 L 23 33.5 L 23 31 L 14 31 L 14 33.5 Z " fill-rule="evenodd" fill="url(#_lgradient_76)"/><linearGradient id="_lgradient_77" x1="-0.2979670812548692" y1="0.49682917665605386" x2="1.4412044120717482" y2="0.4850621313315805" gradientTransform="matrix(15.884,0,0,10.623,14.858,14.722)" gradientUnits="userSpaceOnUse"><stop offset="0%" stop-opacity="1" style="stop-color:rgb(88,0,226)"/><stop offset="100%" stop-opacity="1" style="stop-color:rgb(255,0,230)"/></linearGradient><linearGradient id="_lgradient_78" x1="-0.2664888641810843" y1="0.5085962219805272" x2="1.4648130748770878" y2="0.48506213133158166"><stop offset="0%" stop-opacity="1" style="stop-color:rgb(88,0,226)"/><stop offset="100%" stop-opacity="1" style="stop-color:rgb(255,0,230)"/></linearGradient><path d=" M 21.862 14.722 L 21.862 16.289 L 19.363 16.289 L 19.363 23.6 L 21.862 23.6 L 21.862 25.166 L 14.858 25.166 L 14.858 23.6 L 17.34 23.6 L 17.34 16.289 L 14.858 16.289 L 14.858 14.722 L 21.862 14.722 Z  M 26.781 25.345 L 26.781 25.345 L 26.781 25.345 Q 25.489 25.345 24.503 24.778 L 24.503 24.778 L 24.503 24.778 Q 23.517 24.211 22.99 23.182 L 22.99 23.182 L 24.724 22.451 L 24.724 22.451 Q 25.438 23.659 26.798 23.659 L 26.798 23.659 L 26.798 23.659 Q 28.736 23.659 28.736 21.526 L 28.736 21.526 L 28.736 14.722 L 30.742 14.722 L 30.742 21.615 L 30.742 21.615 Q 30.742 22.674 30.385 23.435 L 30.385 23.435 L 30.385 23.435 Q 30.028 24.196 29.416 24.592 L 29.416 24.592 L 29.416 24.592 Q 28.804 24.987 28.158 25.166 L 28.158 25.166 L 28.158 25.166 Q 27.512 25.345 26.781 25.345 Z " fill="url(#_lgradient_77)" vector-effect="non-scaling-stroke" stroke-width="0.5" stroke="url(#_lgradient_78)" stroke-linejoin="miter" stroke-linecap="square" stroke-miterlimit="3"/></svg>
